app/dist/common/images/dasa-on-nm.svg

<svg fill="none" height="18" width="18" xmlns="http://www.w3.org/2000/svg"><path d="m0 0h18v18h-18z" fill="#000e3f"/><path clip-rule="evenodd" d="m4 6v6h3s2.5 0 2.5-2.727c0-2.183 1.791-2.273 1.791-2.273h1.711l-.01 4h-1.7s-1.14-.017-1.459-.91c0 0-.117.42-.488 1.15 0 0 .783.76 1.946.76h2.709v-6h-2.778c-.416 0-2.722.273-2.722 2.487 0 2.317-1.367 2.513-1.882 2.513h-1.618v-4h1.773s1.074.007 1.394.91c0 0 .123-.685.555-1.188 0 0-.847-.722-1.722-.722z" fill="#f0f3fa" fill-rule="evenodd"/></svg>

<!-- by TradingView --><svg width="18" height="18" fill="none" xmlns="http://www.w3.org/2000/svg"><path fill="#000E3F" d="M0 0h18v18H0z"/><path fill-rule="evenodd" clip-rule="evenodd" d="M4 6v6h3s2.5 0 2.5-2.727C9.5 7.09 11.291 7 11.291 7h1.711l-.01 4h-1.7s-1.14-.017-1.459-.91c0 0-.117.42-.488 1.15 0 0 .783.76 1.946.76H14V6h-2.778C10.806 6 8.5 6.273 8.5 8.487 8.5 10.804 7.133 11 6.618 11H5V7h1.773s1.074.007 1.394.91c0 0 .123-.685.555-1.188C8.722 6.722 7.875 6 7 6H4Z" fill="#F0F3FA"/></svg>
